X:78
T:Ballinakill
R:Polka
S:Lucy Farr, Galway (fiddle).
D:Lucy Farr - 'Hearth and Home'
Q:240
M:2/4
L:1/8
Z:Bernie Stocks
K:D
|: DF A2 | A/B/ A/F/ Ad | DF AF | GFE2 | DF A2 | A/B/ A/F/ Ad | cB AG | FE D2 :|
|: fd ec | dc BA | fd ec | de f2 | fd ec | dc BA | B>c BA | Bc d2 :|
<end>
<start>
